SF_Symbols/sun.max.fill.svg

<?xml version="1.0" encoding="UTF-8"?>
<svg xmlns="http://www.w3.org/2000/svg" xmlns:xlink="http://www.w3.org/1999/xlink" width="24" height="24" viewBox="0 0 24 24" version="1.1">
<g id="surface1">
<path style=" stroke:none;fill-rule:nonzero;fill:rgb(100%,100%,100%);fill-opacity:1;" d="M 11.988281 7.15625 C 11.261719 7.15625 10.578125 7.296875 9.9375 7.574219 C 9.296875 7.851562 8.734375 8.234375 8.238281 8.730469 C 7.753906 9.214844 7.371094 9.78125 7.09375 10.425781 C 6.816406 11.066406 6.675781 11.75 6.675781 12.480469 C 6.675781 13.207031 6.816406 13.890625 7.09375 14.53125 C 7.371094 15.171875 7.753906 15.734375 8.238281 16.230469 C 8.734375 16.714844 9.296875 17.097656 9.9375 17.375 C 10.578125 17.652344 11.261719 17.792969 11.988281 17.792969 C 12.710938 17.792969 13.390625 17.652344 14.03125 17.375 C 14.675781 17.097656 15.242188 16.714844 15.730469 16.230469 C 16.214844 15.734375 16.597656 15.171875 16.875 14.53125 C 17.152344 13.890625 17.292969 13.207031 17.292969 12.480469 C 17.292969 11.75 17.152344 11.066406 16.875 10.425781 C 16.597656 9.78125 16.214844 9.214844 15.730469 8.730469 C 15.242188 8.234375 14.675781 7.851562 14.03125 7.574219 C 13.390625 7.296875 12.710938 7.15625 11.988281 7.15625 Z M 12.90625 2.082031 C 12.90625 1.832031 12.816406 1.617188 12.636719 1.4375 C 12.453125 1.257812 12.238281 1.167969 11.988281 1.167969 C 11.746094 1.167969 11.535156 1.257812 11.355469 1.4375 C 11.171875 1.617188 11.082031 1.832031 11.082031 2.082031 L 11.082031 4.269531 C 11.082031 4.515625 11.171875 4.726562 11.355469 4.90625 C 11.535156 5.085938 11.746094 5.175781 11.988281 5.175781 C 12.238281 5.175781 12.453125 5.085938 12.636719 4.90625 C 12.816406 4.726562 12.90625 4.515625 12.90625 4.269531 Z M 17.136719 6.050781 C 16.960938 6.226562 16.875 6.441406 16.875 6.699219 C 16.875 6.949219 16.960938 7.160156 17.136719 7.332031 C 17.308594 7.507812 17.519531 7.597656 17.769531 7.605469 C 18.027344 7.605469 18.246094 7.515625 18.425781 7.332031 L 19.980469 5.78125 C 20.152344 5.609375 20.238281 5.390625 20.238281 5.136719 C 20.238281 4.878906 20.152344 4.664062 19.980469 4.488281 C 19.804688 4.316406 19.59375 4.230469 19.34375 4.230469 C 19.09375 4.230469 18.882812 4.316406 18.707031 4.488281 Z M 22.355469 13.386719 C 22.605469 13.386719 22.820312 13.296875 23 13.113281 C 23.179688 12.933594 23.269531 12.722656 23.269531 12.480469 C 23.269531 12.230469 23.179688 12.015625 23 11.84375 C 22.820312 11.664062 22.605469 11.574219 22.355469 11.574219 L 20.175781 11.574219 C 19.933594 11.574219 19.722656 11.664062 19.542969 11.84375 C 19.359375 12.015625 19.269531 12.230469 19.269531 12.480469 C 19.269531 12.722656 19.359375 12.933594 19.542969 13.113281 C 19.722656 13.296875 19.933594 13.386719 20.175781 13.386719 Z M 18.417969 17.636719 C 18.242188 17.460938 18.027344 17.375 17.769531 17.375 C 17.519531 17.375 17.308594 17.460938 17.136719 17.636719 C 16.960938 17.808594 16.875 18.019531 16.875 18.269531 C 16.875 18.519531 16.960938 18.734375 17.136719 18.917969 L 18.707031 20.480469 C 18.882812 20.652344 19.09375 20.734375 19.34375 20.730469 C 19.59375 20.730469 19.804688 20.640625 19.980469 20.46875 C 20.152344 20.296875 20.238281 20.082031 20.238281 19.832031 C 20.238281 19.578125 20.152344 19.359375 19.980469 19.1875 Z M 12.90625 20.6875 C 12.90625 20.4375 12.816406 20.222656 12.636719 20.042969 C 12.453125 19.859375 12.238281 19.769531 11.988281 19.769531 C 11.746094 19.769531 11.535156 19.859375 11.355469 20.042969 C 11.171875 20.222656 11.082031 20.4375 11.082031 20.6875 L 11.082031 22.875 C 11.082031 23.117188 11.171875 23.328125 11.355469 23.511719 C 11.535156 23.691406 11.746094 23.78125 11.988281 23.78125 C 12.238281 23.78125 12.453125 23.691406 12.636719 23.511719 C 12.816406 23.328125 12.90625 23.117188 12.90625 22.875 Z M 4 19.175781 C 3.828125 19.351562 3.738281 19.566406 3.738281 19.824219 C 3.738281 20.074219 3.824219 20.285156 3.988281 20.457031 C 4.164062 20.632812 4.378906 20.71875 4.636719 20.71875 C 4.890625 20.726562 5.109375 20.640625 5.28125 20.46875 L 6.832031 18.917969 C 7.007812 18.742188 7.09375 18.53125 7.09375 18.28125 C 7.101562 18.023438 7.015625 17.808594 6.84375 17.636719 C 6.671875 17.460938 6.453125 17.375 6.199219 17.375 C 5.941406 17.375 5.726562 17.460938 5.550781 17.636719 Z M 1.625 11.574219 C 1.382812 11.574219 1.171875 11.664062 0.988281 11.84375 C 0.808594 12.015625 0.71875 12.230469 0.71875 12.480469 C 0.71875 12.722656 0.808594 12.933594 0.988281 13.113281 C 1.171875 13.296875 1.382812 13.386719 1.625 13.386719 L 3.800781 13.386719 C 4.050781 13.386719 4.265625 13.296875 4.449219 13.113281 C 4.628906 12.933594 4.71875 12.722656 4.71875 12.480469 C 4.71875 12.230469 4.628906 12.015625 4.449219 11.84375 C 4.265625 11.664062 4.050781 11.574219 3.800781 11.574219 Z M 5.550781 7.332031 C 5.726562 7.507812 5.9375 7.59375 6.1875 7.59375 C 6.445312 7.59375 6.660156 7.507812 6.832031 7.332031 C 7.007812 7.167969 7.09375 6.953125 7.09375 6.699219 C 7.101562 6.433594 7.015625 6.21875 6.84375 6.050781 L 5.292969 4.488281 C 5.125 4.324219 4.914062 4.238281 4.65625 4.238281 C 4.40625 4.234375 4.191406 4.316406 4.011719 4.488281 C 3.835938 4.664062 3.75 4.878906 3.75 5.136719 C 3.75 5.386719 3.832031 5.597656 4 5.769531 Z M 5.550781 7.332031 "/>
</g>
</svg>

<svg xmlns="http://www.w3.org/2000/svg" width="24" height="24"><path style="stroke:none;fill-rule:nonzero;fill:#fff;fill-opacity:1" d="M11.988 7.156c-.726 0-1.41.14-2.05.418a5.427 5.427 0 0 0-2.844 2.852 5.089 5.089 0 0 0-.418 2.054c0 .727.14 1.41.418 2.051.273.633.66 1.207 1.144 1.7a5.566 5.566 0 0 0 1.7 1.144c.64.277 1.324.418 2.05.418.723 0 1.403-.14 2.043-.418.633-.27 1.211-.66 1.7-1.145a5.566 5.566 0 0 0 1.144-1.699c.277-.64.418-1.324.418-2.05 0-.731-.14-1.415-.418-2.055A5.435 5.435 0 0 0 15.73 8.73a5.27 5.27 0 0 0-1.699-1.156 5.1 5.1 0 0 0-2.043-.418Zm.918-5.074a.873.873 0 0 0-.27-.644.888.888 0 0 0-.648-.27.877.877 0 0 0-.633.27.862.862 0 0 0-.273.644V4.27c0 .246.09.457.273.636.18.18.391.27.633.27.25 0 .465-.09.649-.27.18-.18.27-.39.27-.636Zm4.23 3.969a.88.88 0 0 0-.261.648c0 .25.086.461.262.633.168.172.394.27.633.273.257 0 .476-.09.656-.273l1.554-1.55a.878.878 0 0 0 .258-.645.882.882 0 0 0-.895-.906c-.25 0-.46.085-.636.257Zm5.22 7.336c.25 0 .464-.09.644-.274.18-.18.27-.39.27-.633a.85.85 0 0 0-.27-.636.873.873 0 0 0-.645-.27h-2.18a.877.877 0 0 0-.632.27.84.84 0 0 0-.273.636c0 .243.09.454.273.633.18.184.39.274.633.274Zm-3.938 4.25a.88.88 0 0 0-.648-.262c-.25 0-.461.086-.633.262a.855.855 0 0 0-.262.633c0 .25.086.464.262.648l1.57 1.562a.86.86 0 0 0 .637.25.882.882 0 0 0 .895-.898.884.884 0 0 0-.259-.645Zm-5.512 3.05a.873.873 0 0 0-.27-.644.88.88 0 0 0-.648-.273.86.86 0 0 0-.633.273.862.862 0 0 0-.273.645v2.187c0 .242.09.453.273.637.18.18.391.27.633.27.25 0 .465-.09.649-.27a.886.886 0 0 0 .27-.637ZM4 19.177a.896.896 0 0 0-.262.648c0 .25.086.461.25.633.176.176.39.262.649.262a.842.842 0 0 0 .644-.25l1.551-1.551a.864.864 0 0 0 .262-.637.853.853 0 0 0-.25-.644.881.881 0 0 0-.645-.262.896.896 0 0 0-.648.262Zm-2.375-7.602a.886.886 0 0 0-.637.27.856.856 0 0 0-.27.636c0 .243.09.454.27.633a.854.854 0 0 0 .637.274h2.176c.25 0 .465-.09.648-.274.18-.18.27-.39.27-.633a.856.856 0 0 0-.27-.636.92.92 0 0 0-.648-.27Zm3.926-4.242a.87.87 0 0 0 .636.262.852.852 0 0 0 .645-.262.827.827 0 0 0 .262-.633.828.828 0 0 0-.25-.648L5.293 4.488a.86.86 0 0 0-.637-.25.874.874 0 0 0-.906.899c0 .25.082.46.25.633Zm0 0"/></svg>
